X: 21608
T: Killashandra Lasses, The
R: jig
M: 6/8
K: Gmajor
|:DGG BGG|dGG BAG|A2B c2d|ecA AGE|
DGG BGG|dGG BAG|ABc BAB|GEE E2:|
efg fed|efg dBG|ABA A2E|ABA A2d|
efg fed|efg dBG|ABc BAB|GEE E3|
efg fed|efg dBG|ABA AB/c/d|ecA Aga|
bag agf|gfe dBG|ABc BAB|GEE EDB,||

